Adwaita++/actions/22/run-build-prune.svg

<svg height="22" viewBox="0 0 22 22" width="22" xmlns="http://www.w3.org/2000/svg">
  <path d="m7 1v1.0859375a6 6 0 0 0 -2.4707031 1.0292969l-.7714844-.7714844-1.4140625 1.4140625.7695312.7695313a6 6 0 0 0 -1.0234374 2.4726562h-1.0898438v2h1.0859375a6 6 0 0 0 1.0292969 2.470703l-.7714844.771485 1.4140625 1.414062.7695313-.769531a6 6 0 0 0 2.4726562 1.023437v1.089844h2v-1.085938a6 6 0 0 0 2.470703-1.029296l.771485.771484 1.414062-1.414062-.769531-.769532a6 6 0 0 0 1.023437-2.472656h1.089844v-2h-1.085938a6 6 0 0 0 -1.029296-2.4707031l.771484-.7714844-1.414062-1.4140625-.769532.7695312a6 6 0 0 0 -2.472656-1.0234374v-1.0898438zm-.4140625 4.171875 1.4140625 1.4140625 1.4140625-1.4140625 1.4140625 1.4140625-1.4140625 1.4140625 1.4140625 1.4140625-1.4140625 1.4140625-1.4140625-1.4140625-1.4140625 1.4140625-1.4140625-1.4140625 1.4140625-1.4140625-1.4140625-1.4140625z" fill="#444" transform="translate(3 3)"/>
</svg>

<svg xmlns="http://www.w3.org/2000/svg" width="22" height="22" viewBox="0 0 22 22">
 <defs>
  <style id="current-color-scheme" type="text/css">
   .ColorScheme-Text { color:#444444; } .ColorScheme-Highlight { color:#4285f4; }
  </style>
 </defs>
 <path style="fill:currentColor" class="ColorScheme-Text" d="M 7 1 L 7 2.0859375 A 6 6 0 0 0 4.5292969 3.1152344 L 3.7578125 2.34375 L 2.34375 3.7578125 L 3.1132812 4.5273438 A 6 6 0 0 0 2.0898438 7 L 1 7 L 1 9 L 2.0859375 9 A 6 6 0 0 0 3.1152344 11.470703 L 2.34375 12.242188 L 3.7578125 13.65625 L 4.5273438 12.886719 A 6 6 0 0 0 7 13.910156 L 7 15 L 9 15 L 9 13.914062 A 6 6 0 0 0 11.470703 12.884766 L 12.242188 13.65625 L 13.65625 12.242188 L 12.886719 11.472656 A 6 6 0 0 0 13.910156 9 L 15 9 L 15 7 L 13.914062 7 A 6 6 0 0 0 12.884766 4.5292969 L 13.65625 3.7578125 L 12.242188 2.34375 L 11.472656 3.1132812 A 6 6 0 0 0 9 2.0898438 L 9 1 L 7 1 z M 6.5859375 5.171875 L 8 6.5859375 L 9.4140625 5.171875 L 10.828125 6.5859375 L 9.4140625 8 L 10.828125 9.4140625 L 9.4140625 10.828125 L 8 9.4140625 L 6.5859375 10.828125 L 5.171875 9.4140625 L 6.5859375 8 L 5.171875 6.5859375 L 6.5859375 5.171875 z" transform="translate(3 3)"/>
</svg>
